lib/brands/icons/youtube-music.svg

<svg xmlns="http://www.w3.org/2000/svg" fill="none" aria-hidden="true" viewBox="0 0 48 48"><g id="youtube-music-Icon"><path id="vector" fill="#FF0000" d="M24 45C35.598 45 45 35.598 45 24C45 12.402 35.598 3 24 3C12.402 3 3 12.402 3 24C3 35.598 12.402 45 24 45Z"/><path id="vector_2" fill="white" d="M24 14.4222C29.282 14.4222 33.5778 18.7181 33.5778 24.0001C33.5778 29.282 29.282 33.5779 24 33.5779C18.718 33.5779 14.4222 29.282 14.4222 24.0001C14.4222 18.7181 18.718 14.4222 24 14.4222ZM24 13.5001C18.1999 13.5001 13.5 18.2 13.5 24.0001C13.5 29.8002 18.1999 34.5001 24 34.5001C29.8001 34.5001 34.5 29.8002 34.5 24.0001C34.5 18.2 29.8001 13.5001 24 13.5001Z"/><path id="vector_3" fill="white" d="M21 30L30 23.7391L21 18V30Z"/></g></svg>

<svg xmlns="http://www.w3.org/2000/svg" fill="none" aria-hidden="true" viewBox="0 0 48 48"><path fill="red" d="M24 45c11.598 0 21-9.402 21-21S35.598 3 24 3 3 12.402 3 24s9.402 21 21 21Z"/><path fill="#fff" d="M24 14.422c5.282 0 9.578 4.296 9.578 9.578 0 5.282-4.296 9.578-9.578 9.578-5.282 0-9.578-4.296-9.578-9.578 0-5.282 4.296-9.578 9.578-9.578Zm0-.922c-5.8 0-10.5 4.7-10.5 10.5S18.2 34.5 24 34.5 34.5 29.8 34.5 24 29.8 13.5 24 13.5Z"/><path fill="#fff" d="m21 30 9-6.26L21 18v12Z"/></svg>
